!!!!SEGMENT: pl-wnifc--13846--052_anonim--piesni-polskie-i-ruskie-ludu-galicyjskiego-52-matusia-mnie-laja.krn
!!!kernsource:
!!!cenid: 18xx:3274
!!!COM: Anonim
!!!COM-rismID: pe30004985
!!!CDT:
!!!CNT:
!!!GTL: Pieśni polskie i ruskie ludu galicyjskiego
!!!OTL: 52. Matusia mnie łają
!!!PDT: 1833
!!!AGN:
!!!SMS-siglum: PL-Wnifc
!!!SMS-shelfmark: 13846
!!!SMS-shelfwork: 052 G
!!!SMS-variant:
!!!SMS-altvar:
!!!NIFC-rismSourceID: 1001036701
!!!NIFC-rismChildID: 1001037059
!!!NIFC-islandoraID: nifc:210326
!!!URL-pdf-islandora: https://repozytorium.nifc.pl/islandora/object/nifc%3A210326/datastream/PDF/view
!!!URL-scan:
!!!ONB-nifc:
!!!OMD: Krakowiak
!!!AIN: 1 piano 1 vox
!!!key: D
**kern	**kern	**dynam	**kern	**text
*part2	*part2	*part2	*part1	*part1
*staff3	*staff2	*	*staff1	*staff1
*I"Fortepian	*I"Fortepian	*	*I"Głos	*
*Ipiano	*Ipiano	*	*Ivox	*
*ICklav	*ICklav	*	*ICvox	*
*IGacmp	*IGacmp	*	*IGsolo	*
*clefF4	*clefG2	*	*clefG2	*
*k[f#c#]	*k[f#c#]	*	*k[f#c#]	*
*D:	*D:	*	*D:	*
*M2/4	*M2/4	*	*M2/4	*
=1	=1	=1	=1	=1
!	!	!	!LO:TX:a:t=D.b.Б. \n650.	!
4AAA/ 4AA/	8a\L	.	8a/	Ma-
.	8gg\J	.	8gg\	-tu-
4A\ 4c#\ 4e\	8.gg\L	.	(>8.gg\L	-sia
.	16ee\Jk	.	16ee\Jk)	.
=2	=2	=2	=2	=2
4DD/	8ff#\	.	8ff#\	mnie
.	4dd\	sf	4dd\	ła-
4A\ 4d\ 4f#\	.	.	.	.
.	(>16cc#\LL	.	(>16cc#\LL	-ją,
.	16b\JJ)	.	16b\JJ)	.
!!LO:LB:g=original
=3	=3	=3	=3	=3
4AA/	8a\L	.	8a/	że
.	8a\J	.	8a/	za
4A\ 4c#\ 4e\	8b\L	.	8b\	Jon-
.	8cc#\J	.	8cc#\	-kiem
=4	=4	=4	=4	=4
4DD/	4dd\	.	4dd\	cho-
4D\ 4A\ 4d\	4ff#\	.	4ff#\	-dzę,
=5	=5	=5	=5	=5
!	!LO:TX:t=P:problem=mixed beam	!	!	!
4AAA/ 4AA/	8a/L	.	8a/	a
.	8gg\J	.	8gg\	bi-
4A\^ 4c#\ 4e\	8.gg\L	.	(>8.gg\L	-daz
.	16ee\Jk	.	16ee\Jk)	.
!!LO:LB:g=original
=6	=6	=6	=6	=6
4DD/	8ff#\	.	8ff#\	mi
.	4dd\	.	4dd\	bi-
4A\ 4d\ 4f#\	.	.	.	.
.	(>16cc#\LL	.	(>16cc#\LL	-da,
.	16b\JJ)	.	16b\JJ)	.
=7	=7	=7	=7	=7
4AA/	8a/L	.	8a/	dzie-
.	8a/	.	8a/	-wcy-
4A\ 4g\	8b\	.	8b/	-nie
.	8cc#\J	.	8cc#/	nie-
=8	=8	=8	=8	=8
4DD/	4dd\	.	4dd\	-bo-
4A\ 4d\ 4f#\	4dd\	.	4dd\	-dze
!!LO:LB:g=original
==	==	==	==	==
*-	*-	*-	*-	*-
!!!system-decoration: s1,{(s2,s3)}
!!!RDF**kern: < = below
!!!RDF**kern: > = above
!!!ENC: Marta Chmielewska
!!!END: 2021-11-10
!!!YEC: Copyright 2022 Narodowy Instytut Fryderyka Chopina (https://polishscores.org)
!!!YEM: License CC-BY-4.0 (https://creativecommons.org/licenses/by/4.0)
